X:203
T:Sbrando ("Smarlon")
M:6/8
L:1/8
K:D
F2G | A2A ABA | F2F AGF | E2E GFE | F2D F2G |
A2A ABA | F2F AGF | E2E GFE | D3 :|
EFE | D2D EDE | F2D EFE | DEF GFE | F2D F2G |
A2A ABA | F2F AGF | E2E GFE | D3 :|
K:G
DEF | G2G GAB | c2c cBA | d2d cBA | B2G DEF |
G2G GAB | c2c cBA | d2d cBA | G3 :|
